X: 99
T: No_188_Snake_Dance_Song_(a).krn
N: Derived from No_188_Snake_Dance_Song_(a).krn
%%abc-version 2.0
%%abcx-abcm2ps-target-version 5.9.1 (29 Sep 2008)
%%abc-creator hum2abc beta
%%abcx-conversion-date 2019/03/15 08:38:45
%%humdrum-veritas 616095098
%%humdrum-veritas-data 2509603984
%%linebreak <none>
%%barnumbers 0
L: 1/8
M: 2/4
K: Eb clef=bass
[K:clef=bass][M:2/4]z2B,3/B,/ | 
B,3B, ||  
[M:3/8]A,2G,/E,/ ]|:  
[M:2/4]B,3/A,/ G,E,/E,/ ||  
[M:3/8]E,2E, ||  
[M:2/4]G,3/A,/ G,E,/E,/ | 
E,2E, z | 
_D,2D,D,/ z/ | 
E,2E,2 :|]  
[M:3/4]B,2-(B,E,/) z/B,2 | 
B,2-(B,E,/) z/B,2 ||  
[M:2/4]z4 | 
z2B,3/B,/ | 
B,3B, ||  
[M:3/4]A,/F,/E,/B,/ A,/F,3/ (3F,E,E, ||  
[M:2/4]E,4 | 
E,2E,2 | 
B,2A,/F,/B, | 
B,A, z E, ||  
[M:3/4]E,2-E,3/A,/ (3F,E,E, ||  
[M:2/4]E,4 | 
_D,4 | 
_D,2D, z | 
E,4 ||  
[M:3/4]E,4(3A,F,E, | 
E,4E,3/C,/ | 
E,4(3F,E,E, ||  
[M:2/4]E,4 | 
_D,4 | 
_D,2D, z ||  
[M:3/4]E,4E,2 |]  



